icons/briefcase-17.svg

<svg width="16" height="17" viewBox="0 0 16 17" fill="none" xmlns="http://www.w3.org/2000/svg">
<path fill-rule="evenodd" clip-rule="evenodd" d="M7.0625 2.54138C6.7144 2.54138 6.38056 2.67966 6.13442 2.9258C5.88828 3.17195 5.75 3.50579 5.75 3.85388V4.79138H3.3125C2.9644 4.79138 2.63056 4.92966 2.38442 5.1758C2.13828 5.42195 2 5.75579 2 6.10388V12.4789C2 13.2034 2.588 13.7914 3.3125 13.7914H12.6875C13.0356 13.7914 13.3694 13.6531 13.6156 13.407C13.8617 13.1608 14 12.827 14 12.4789V6.10388C14 5.75579 13.8617 5.42195 13.6156 5.1758C13.3694 4.92966 13.0356 4.79138 12.6875 4.79138H10.25V3.85388C10.25 3.50579 10.1117 3.17195 9.86558 2.9258C9.61944 2.67966 9.2856 2.54138 8.9375 2.54138H7.0625ZM9.125 4.79138V3.85388C9.125 3.80415 9.10525 3.75646 9.07008 3.7213C9.03492 3.68614 8.98723 3.66638 8.9375 3.66638H7.0625C7.01277 3.66638 6.96508 3.68614 6.92992 3.7213C6.89475 3.75646 6.875 3.80415 6.875 3.85388V4.79138H9.125ZM5.75 5.91638H3.3125C3.26277 5.91638 3.21508 5.93614 3.17992 5.9713C3.14475 6.00646 3.125 6.05415 3.125 6.10388V7.04138C3.125 7.43921 3.28304 7.82074 3.56434 8.10204C3.84564 8.38335 4.22718 8.54138 4.625 8.54138H11.375C11.7728 8.54138 12.1544 8.38335 12.4357 8.10204C12.717 7.82074 12.875 7.43921 12.875 7.04138V6.10388C12.875 6.05415 12.8552 6.00646 12.8201 5.9713C12.7849 5.93614 12.7372 5.91638 12.6875 5.91638H5.75ZM4.625 9.66638C4.08858 9.66731 3.56488 9.50313 3.125 9.19613V12.4789C3.125 12.5824 3.209 12.6664 3.3125 12.6664H12.6875C12.7372 12.6664 12.7849 12.6466 12.8201 12.6115C12.8552 12.5763 12.875 12.5286 12.875 12.4789V9.19613C12.4351 9.50313 11.9114 9.66731 11.375 9.66638H4.625Z" fill="#272431"/>
</svg>

<svg xmlns="http://www.w3.org/2000/svg" width="16" height="17" viewBox="0 0 16 17"><path fill-rule="evenodd" d="M7.063 2.541A1.313 1.313 0 005.75 3.854v.937H3.312A1.313 1.313 0 002 6.104v6.375c0 .724.588 1.312 1.313 1.312h9.374A1.313 1.313 0 0014 12.48V6.104a1.313 1.313 0 00-1.313-1.313H10.25v-.937A1.313 1.313 0 008.937 2.54H7.063zm2.062 2.25v-.937a.187.187 0 00-.188-.188H7.063a.188.188 0 00-.188.188v.937h2.25zM5.75 5.916H3.312a.188.188 0 00-.187.188v.937a1.5 1.5 0 001.5 1.5h6.75a1.5 1.5 0 001.5-1.5v-.937a.188.188 0 00-.188-.188H5.75zm-1.125 3.75a2.613 2.613 0 01-1.5-.47v3.283c0 .103.084.187.188.187h9.374a.188.188 0 00.188-.187V9.196c-.44.307-.964.471-1.5.47h-6.75z"/></svg>
